X:1
T:Title
%%score { ( 1 4 ) | ( 2 3 ) }
L:1/8
Q:1/4=108
M:4/4
K:Bb
V:1 treble nm="Grand Piano"
V:4 treble 
V:2 bass 
V:3 bass 
V:1
 [Fd]2 [DB]2 [Ec]2 [CEA]2 | [B,DB]2 .[B,EA]2 [B,DF]4 | F-[FG]AB c3 A | Bc[Fd]e d4 | %4
w: Frederic~H.~Pease * * *||||
 d2 B2 [Gc]2 [FA]2 | [FB]2 AG [DF]2 z2 | F2 ed d2 B2 | c2 BA [DB]4 | G2 z2 z4 | d4 z4 | %10
w: ||||||
 d3 c B>B A>B | c6 z2 | [Fd]2 [DB]2 [Ec]2 [EA]2 | z2 .A2 z4 | [B,FB]2 ed d>c B>A | [DB]6 z2 |] %16
w: ||||||
V:2
 [B,,B,]2 [B,,F,]2 [B,,F,]2 B,,2 | B,,2 z G B,,4 | z B,[F,F]-[F,DF] [F,EF]3 [F,CE] | %3
 B,-[B,E] z[K:treble] G [B,F]4 | [B,DF]2 [G,DG]2[K:bass] [E,E]2 [F,C]2 | %5
 [D,B,]2 [E,B,E]2 [B,,B,]2 z2 | [F,A,]2 [F,A,F]2 [F,B,F]2 [F,DF]2 | [F,EF]2 [DF][CE] [B,,B,]4 | %8
 [E,B,]2 E,2 E,2[K:treble] e2 | [B,,B,]2 B,,2 B,,2 z2 | %10
 [B,F]3 [A,CF] [G,C=E]>[G,CE] [G,CE]>[G,B,E] | [F,A,F]6 z2 | [B,,B,]2 [B,,F,]2 [B,,F,]2 [B,,F,]2 | %13
 z4 z2 [E,E]2 | D,2 [B,,A,][B,,B,] [F,B,F]>[F,E] [F,D]>[F,E] | [B,,F,]6 z2 |] %16
V:3
 x8 | z2 B,,2 z4 | F,2 .C2 z4 | .D2 B,2[K:treble] z4 | x4[K:bass] x4 | x8 | x8 | z2 F,2 z4 | %8
 x6[K:treble] x2 | x8 | x8 | x8 | x8 | [B,,F,]2 .[B,,G,]2 [B,,B,]2 B,C | x8 | x8 |] %16
V:4
 x8 | x8 | .A,2 z2 z4 | x8 | x8 | x8 | x8 | x8 | e2- [B,Ge]2 [B,GB]2 z2 | F2 [B,F]2 [DFB]2 z2 | %10
 x8 | x8 | x8 | [DB]2 E-[A,EG] [DF]2 GA | z2 F2 z4 | x8 |] %16

